X:1
T:Title
%%score 1 2
L:1/8
Q:1/4=100
M:4/4
K:C
V:1 treble nm="Grand Piano, Soprano"
V:2 bass nm="Choir Pad, There, Ever There, E. Holme"
V:1
 [EG]2 [CE]>[DF] [EG]2 [Ec][Fd] | [Ge]2 [Gc]>[Gc] [Gd]4 | [Ge]2 [Gc]>[GB] [FA]2 [Fd][Fd] | %3
w: By~John~Harrison~Tenney * * * * *|||
 [Ec]2 [DB]>[DB] [Ec]4 | [Gd]2 [Gd]>[Gd] [Gd]2 [Ge][Fd] | [Ec]2 [GB]>[FA] [EG]4 | %6
w: |||
 [Ec]2 [Ee]>[Ec] [FA]2 [Fc][FA] | [EG]2 [FA][FB] [Ec]4 | [FA]6 [Ac]>[FA] | [EG]6 [Ec]>[Ge] | %10
w: ||||
 [Gd]6 [Ec]>[Fd] | [Ge]6 z2 | [FA]6 [Ac]>[FA] | [EG]6 [Ec]>[Ge] | [Fd]2 [Fd]>[Fd] [Ec]2 [DB][DB] | %15
w: |||||
 [Ec]8 |] %16
w: |
V:2
 [C,C]2 [C,G,]>[C,G,] [C,C]2 [C,C][C,C] | [C,C]2 [E,C]>[E,C] [G,B,]4 | %2
 [C,C]2 [E,C]>[E,C] [E,C]2 [F,A,][F,A,] | G,2 G,>G, [C,G,]4 | %4
 [G,B,]2 [G,B,]>[G,B,] [G,B,]2 [G,B,][G,B,] | [C,C]2 [C,C]>[C,C] [C,C]4 | %6
 [A,C]2 [A,C]>[A,C] [F,C]2 [F,A,][A,C] | [G,C]2 G,G, [C,G,]4 | [F,C]2 [F,C]>[F,C] [F,C]2 z2 | %9
 [C,C]2 [C,C]>[C,C] [C,C]2 z2 | [G,B,]2 [G,B,]>[G,B,] [G,B,]2 z2 | [C,C]2 [C,C]>[C,C] [C,C]2 z2 | %12
 [F,C]2 [F,C]>[F,C] [F,C]2 z2 | [C,C]2 [C,C]>[C,C] [C,C]2 [C,C]>[C,C] | %14
 [F,A,]2 [F,A,]>[F,A,] G,2 [G,,G,][G,,G,] | [C,G,]8 |] %16

